packages/kaspersky-hexa-ui-icons/src/iconsSVGs/16/CheckedInv.svg

<svg width="16" height="16" viewBox="0 0 16 16" fill="none" xmlns="http://www.w3.org/2000/svg">
<path fill-rule="evenodd" clip-rule="evenodd" d="M3.3501 5.49985C3.3501 4.31244 4.31269 3.34985 5.5001 3.34985H10.5001C11.6875 3.34985 12.6501 4.31244 12.6501 5.49985V10.4999C12.6501 11.6873 11.6875 12.6499 10.5001 12.6499H5.5001C4.31269 12.6499 3.3501 11.6873 3.3501 10.4999V5.49985ZM10.8175 6.97986C11.0714 6.72602 11.0714 6.31447 10.8175 6.06062C10.5637 5.80678 10.1522 5.80678 9.89831 6.06062L7.3859 8.57299L6.08882 7.34667C5.82796 7.10005 5.41657 7.11159 5.16994 7.37244C4.92332 7.6333 4.93485 8.04469 5.19571 8.29132L6.95205 9.95184C7.20775 10.1936 7.6094 10.188 7.85822 9.93914L10.8175 6.97986Z" fill="black"/>
</svg>

<svg xmlns="http://www.w3.org/2000/svg" width="16" height="16" fill="none" viewBox="0 0 16 16"><path fill="#000" fill-rule="evenodd" d="M3.35 5.5c0-1.1874.9626-2.15 2.15-2.15h5c1.1874 0 2.15.9626 2.15 2.15v5c0 1.1874-.9626 2.15-2.15 2.15h-5c-1.1874 0-2.15-.9626-2.15-2.15zm7.4674 1.48a.65.65 0 0 0 0-.9193.65.65 0 0 0-.9192 0L7.3858 8.5731 6.0887 7.3468a.65.65 0 1 0-.8931.9446L6.9519 9.952a.65.65 0 0 0 .9062-.0127z"/></svg>
